X:92
T:Lady lye neare me
R:Jig
M:6/8
L:1/8
Q:100
K:F
A/2B/2cA GAF|dcf d2c||
f>ga/2g/2 ffc|ffg a2g|aag f>ga|cA2 G2F||

